packages/kaspersky-hexa-ui-icons/src/iconsSVGs/28x20/FlagEu.svg

<svg width="28" height="20" viewBox="0 0 28 20" fill="none" xmlns="http://www.w3.org/2000/svg">
<g clip-path="url(#clip0_5138_2150)">
<rect width="28" height="20" rx="2" fill="white"/>
<mask id="mask0_5138_2150" style="mask-type:luminance" maskUnits="userSpaceOnUse" x="0" y="0" width="28" height="20">
<rect width="28" height="20" rx="2" fill="white"/>
</mask>
<g mask="url(#mask0_5138_2150)">
<rect width="28" height="20" fill="#043CAE"/>
<path fill-rule="evenodd" clip-rule="evenodd" d="M13.0572 4.27612L14 3.99998L14.9428 4.27612L14.6667 3.33331L14.9428 2.3905L14 2.66665L13.0572 2.3905L13.3333 3.33331L13.0572 4.27612ZM13.0572 17.6095L14 17.3333L14.9428 17.6095L14.6667 16.6666L14.9428 15.7238L14 16L13.0572 15.7238L13.3333 16.6666L13.0572 17.6095ZM20.6667 10.6666L19.7239 10.9428L20 9.99998L19.7239 9.05717L20.6667 9.33331L21.6095 9.05717L21.3333 9.99998L21.6095 10.9428L20.6667 10.6666ZM6.39053 10.9428L7.33334 10.6666L8.27615 10.9428L8.00001 9.99998L8.27615 9.05717L7.33334 9.33331L6.39053 9.05717L6.66668 9.99998L6.39053 10.9428ZM19.7735 7.33331L18.8307 7.60945L19.1068 6.66665L18.8307 5.72384L19.7735 5.99998L20.7163 5.72384L20.4402 6.66665L20.7163 7.60945L19.7735 7.33331ZM7.2837 14.2761L8.22651 14L9.16932 14.2761L8.89317 13.3333L9.16932 12.3905L8.22651 12.6666L7.2837 12.3905L7.55984 13.3333L7.2837 14.2761ZM17.3333 4.89314L16.3905 5.16929L16.6667 4.22648L16.3905 3.28367L17.3333 3.55981L18.2762 3.28367L18 4.22648L18.2762 5.16929L17.3333 4.89314ZM9.72387 16.7163L10.6667 16.4401L11.6095 16.7163L11.3333 15.7735L11.6095 14.8307L10.6667 15.1068L9.72387 14.8307L10 15.7735L9.72387 16.7163ZM19.7735 14L18.8307 14.2761L19.1068 13.3333L18.8307 12.3905L19.7735 12.6666L20.7163 12.3905L20.4402 13.3333L20.7163 14.2761L19.7735 14ZM7.2837 7.60945L8.22651 7.33331L9.16932 7.60945L8.89317 6.66665L9.16932 5.72384L8.22651 5.99998L7.2837 5.72384L7.55984 6.66665L7.2837 7.60945ZM17.3333 16.4401L16.3905 16.7163L16.6667 15.7735L16.3905 14.8307L17.3333 15.1068L18.2762 14.8307L18 15.7735L18.2762 16.7163L17.3333 16.4401ZM9.72387 5.16929L10.6667 4.89314L11.6095 5.16929L11.3333 4.22648L11.6095 3.28367L10.6667 3.55981L9.72387 3.28367L10 4.22648L9.72387 5.16929Z" fill="#FFD429"/>
</g>
</g>
<defs>
<clipPath id="clip0_5138_2150">
<rect width="28" height="20" fill="white"/>
</clipPath>
</defs>
</svg>

<svg xmlns="http://www.w3.org/2000/svg" width="28" height="20" fill="none" viewBox="0 0 28 20"><g clip-path="url(#a)"><rect width="28" height="20" fill="#fff" rx="2"/><mask id="b" width="28" height="20" x="0" y="0" maskUnits="userSpaceOnUse" style="mask-type:luminance"><rect width="28" height="20" fill="#fff" rx="2"/></mask><g mask="url(#b)"><path fill="#043cae" d="M0 0h28v20H0z"/><path fill="#ffd429" fill-rule="evenodd" d="M13.0572 4.2761 14 4l.9428.2761-.2761-.9428.2761-.9428L14 2.6667l-.9428-.2762.2761.9428zm0 13.3334L14 17.3333l.9428.2762-.2761-.9429.2761-.9428L14 16l-.9428-.2762.2761.9428zm7.6095-6.9429-.9428.2762L20 10l-.2761-.9428.9428.2761.9428-.2761-.2762.9428.2762.9428zm-14.2762.2762.9428-.2762.9428.2762L8.0002 10l.276-.9428-.9428.2761-.9428-.2761.2762.9428zm13.383-3.6095-.9428.2761.2761-.9428-.2761-.9428.9428.2762.9428-.2762-.2761.9429.2761.9428zM7.2837 14.2761 8.2265 14l.9428.2761-.2761-.9428.2761-.9428-.9428.2761-.9428-.2761.2761.9428zm10.0496-9.383-.9428.2762.2762-.9428-.2762-.9428.9428.2761.9429-.2761L18 4.2265l.2762.9428zM9.7239 16.7163l.9428-.2762.9428.2762-.2762-.9428.2762-.9428-.9428.2761-.9428-.2761.2761.9428zM19.7735 14l-.9428.2761.2761-.9428-.2761-.9428.9428.2761.9428-.2761-.2761.9428.2761.9428zM7.2837 7.6095l.9428-.2762.9428.2761-.2761-.9428.2761-.9428L8.2265 6l-.9428-.2762.2761.9429zM17.3333 16.44l-.9428.2762.2762-.9428-.2762-.9428.9428.2761.9429-.2761-.2762.9428.2762.9428zM9.7239 5.1693l.9428-.2762.9428.2762-.2762-.9428.2762-.9428-.9428.2761-.9428-.2761.2761.9428z" clip-rule="evenodd"/></g></g><defs><clipPath id="a"><path fill="#fff" d="M0 0h28v20H0z"/></clipPath></defs></svg>
